X:372
T: Renren doushuo hongjunhao
N: C1873
O: China,Guizhou Zunyi
S: II, 150, 2)]
R: Xiaodiao, Huadeng diao]
M: 2/4
L: 1/16
K: C
d2A2c2Ac | d2A2A2c2 | d4d4 |
c4A4 | G4G2A2 | c4A4 |
d2d2cAAd | c2dcA4 | G2GAc4 |
A2c2c2A2 | G4G2c2 | A4A4 | G4G4

@@@ Tune index: 6927
